svg/300/sharp/pulmonology-fill.svg

<svg xmlns="http://www.w3.org/2000/svg" width="48" height="48" viewBox="0 -960 960 960"><path d="M457.308-869.999h45.384v300.692L615.615-456l45.153-45.538-105.769-106.538v-141.923h173.692l131.308 339.23v280.768H520v-175.384l20.461-162.154L480-528.001l-60.846 60.846L440-305.385v175.384H100.001v-280.768l131.308-339.23h173.692v142.308L299.232-501.538 344.385-456l112.923-113.307v-300.692Z"/></svg>

<svg xmlns="http://www.w3.org/2000/svg" width="48" height="48" viewBox="0 -960 960 960"><path d="M457.31-870h45.38v300.69L615.61-456l45.16-45.54L555-608.08V-750h173.69L860-410.77V-130H520v-175.39l20.46-162.15L480-528l-60.85 60.85L440-305.39V-130H100v-280.77L231.31-750H405v142.31L299.23-501.54 344.39-456l112.92-113.31V-870Z"/></svg>
